src/helpers/heroicons/solid/document-arrow-down.svg

<svg width="24" height="24" viewBox="0 0 24 24" fill="none" xmlns="http://www.w3.org/2000/svg">
<path fill-rule="evenodd" clip-rule="evenodd" d="M5.625 1.5H9C11.0711 1.5 12.75 3.17893 12.75 5.25V7.125C12.75 8.16053 13.5895 9 14.625 9H16.5C18.5711 9 20.25 10.6789 20.25 12.75V20.625C20.25 21.6605 19.4105 22.5 18.375 22.5H5.625C4.58947 22.5 3.75 21.6605 3.75 20.625V3.375C3.75 2.33947 4.58947 1.5 5.625 1.5ZM11.4697 18.5303C11.7626 18.8232 12.2374 18.8232 12.5303 18.5303L15.5303 15.5303C15.8232 15.2374 15.8232 14.7626 15.5303 14.4697C15.2374 14.1768 14.7626 14.1768 14.4697 14.4697L12.75 16.1893L12.75 12C12.75 11.5858 12.4142 11.25 12 11.25C11.5858 11.25 11.25 11.5858 11.25 12L11.25 16.1893L9.53033 14.4697C9.23744 14.1768 8.76256 14.1768 8.46967 14.4697C8.17678 14.7626 8.17678 15.2374 8.46967 15.5303L11.4697 18.5303Z" />
<path d="M14.25 5.25C14.25 3.93695 13.768 2.73648 12.9712 1.8159C16.3701 2.70377 19.0462 5.37988 19.9341 8.77881C19.0135 7.98204 17.8131 7.5 16.5 7.5H14.625C14.4179 7.5 14.25 7.33211 14.25 7.125V5.25Z" />
</svg>

<svg xmlns="http://www.w3.org/2000/svg" viewBox="0 0 24 24" fill="currentColor" aria-hidden="true" data-slot="icon">
  <path fill-rule="evenodd" d="M5.625 1.5H9a3.75 3.75 0 0 1 3.75 3.75v1.875c0 1.036.84 1.875 1.875 1.875H16.5a3.75 3.75 0 0 1 3.75 3.75v7.875c0 1.035-.84 1.875-1.875 1.875H5.625a1.875 1.875 0 0 1-1.875-1.875V3.375c0-1.036.84-1.875 1.875-1.875Zm5.845 17.03a.75.75 0 0 0 1.06 0l3-3a.75.75 0 1 0-1.06-1.06l-1.72 1.72V12a.75.75 0 0 0-1.5 0v4.19l-1.72-1.72a.75.75 0 0 0-1.06 1.06l3 3Z" clip-rule="evenodd"/>
  <path d="M14.25 5.25a5.23 5.23 0 0 0-1.279-3.434 9.768 9.768 0 0 1 6.963 6.963A5.23 5.23 0 0 0 16.5 7.5h-1.875a.375.375 0 0 1-.375-.375V5.25Z"/>
</svg>
